app/assets/images/clap.svg

<svg viewBox="0 0 288 305" fill="none" xmlns="http://www.w3.org/2000/svg">
  <path d="M114.167 152.027L152.051 97.3986C157.176 90.0096 165.312 85.3436 174.186 84.5606C174.007 82.6776 173.441 80.8026 172.426 79.0606C168.679 72.6296 160.428 70.4526 153.997 74.1996L144.944 79.4736C147.064 75.4896 147.149 70.5386 144.71 66.3526C140.963 59.9216 132.712 57.7446 126.28 61.4916L45.2419 108.701L54.1999 85.9356C56.9259 79.0086 53.5199 71.1836 46.5929 68.4606C39.6669 65.7346 31.8429 69.1406 29.1179 76.0666C29.1179 76.0666 11.7629 119.844 6.12789 134.495C0.532889 149.041 -3.18911 159.751 3.86189 171.855L20.1309 199.781C28.4419 214.046 45.1869 220.404 60.4079 216.237L57.4049 167.93C56.3709 151.303 68.9889 137.004 85.6199 135.971C97.7439 135.216 108.755 141.774 114.167 152.027Z" fill="#CCC"/>
  <path d="M212.937 75.0085C215.868 77.9375 220.615 77.9365 223.544 75.0085L260.267 38.2855C263.196 35.3555 263.196 30.6075 260.267 27.6785C257.337 24.7505 252.589 24.7505 249.66 27.6785L212.937 64.4005C210.008 67.3305 210.008 72.0785 212.937 75.0085Z" fill="#CCC"/>
  <path d="M191.238 52.1235C195.177 53.3785 199.401 51.2055 200.66 47.2525L212.592 9.77953C213.849 5.83353 211.668 1.61453 207.721 0.357531C203.773 -0.904469 199.556 1.28153 198.299 5.22853L186.367 42.7015C185.11 46.6485 187.291 50.8665 191.238 52.1235Z" fill="#CCC"/>
  <path d="M287.588 80.2255C286.331 76.2795 282.115 74.0955 278.166 75.3545L240.693 87.2855C236.457 88.6345 234.201 93.4365 236.213 97.6595C236.524 98.1275 236.824 98.6025 237.108 99.0875C239.014 101.485 242.215 102.543 245.244 101.578L282.717 89.6465C286.664 88.3905 288.844 84.1725 287.588 80.2255Z" fill="#CCC"/>
  <path d="M234.161 179.406C229.73 176.333 224.182 175.939 219.482 177.982L233.804 157.329C238.571 150.455 236.863 141.018 229.989 136.252C225.557 133.178 220.009 132.785 215.309 134.828L223.534 122.968C228.301 116.094 226.593 106.657 219.719 101.89C212.855 97.1286 203.415 98.8216 198.642 105.705L191.932 115.38C192.196 110.315 189.928 105.234 185.453 102.131C178.586 97.3686 169.147 99.0656 164.376 105.946L104.312 192.557L102.606 165.117C102.087 156.769 94.899 150.42 86.55 150.941C78.201 151.459 71.854 158.649 72.374 166.997C72.374 166.997 75.459 219.831 76.752 237.424C78.065 255.291 79.276 267.572 92.212 276.542L122.058 297.24C129.013 302.063 136.976 304.377 144.86 304.377C157.58 304.377 170.099 298.357 177.881 287.136C190.892 268.375 226.561 216.94 237.975 200.482C242.743 193.61 241.035 184.173 234.161 179.406Z" fill="#CCC"/>
</svg>

<svg fill="none" viewBox="0 0 288 305" xmlns="http://www.w3.org/2000/svg"><g fill="#ccc"><path d="m114.167 152.027 37.884-54.6284c5.125-7.389 13.261-12.055 22.135-12.838-.179-1.883-.745-3.758-1.76-5.5-3.747-6.431-11.998-8.608-18.429-4.861l-9.053 5.274c2.12-3.984 2.205-8.935-.234-13.121-3.747-6.431-11.998-8.608-18.43-4.861l-81.0381 47.2094 8.958-22.7654c2.726-6.927-.68-14.752-7.607-17.475-6.926-2.726-14.75.68-17.475 7.606 0 0-17.355 43.7774-22.99001 58.4284-5.595001 14.546-9.317 25.256-2.266 37.36l16.26901 27.926c8.311 14.265 25.056 20.623 40.277 16.456l-3.003-48.307c-1.034-16.627 11.584-30.926 28.215-31.959 12.124-.755 23.1351 5.803 28.5471 16.056z"/><path d="m212.937 75.0085c2.931 2.929 7.678 2.928 10.607 0l36.723-36.723c2.929-2.93 2.929-7.678 0-10.607-2.93-2.928-7.678-2.928-10.607 0l-36.723 36.722c-2.929 2.93-2.929 7.678 0 10.608z"/><path d="m191.238 52.1235c3.939 1.255 8.163-.918 9.422-4.871l11.932-37.47297c1.257-3.946-.924-8.165-4.871-9.421999-3.948-1.262-8.165.923999-9.422 4.870999l-11.932 37.47297c-1.257 3.947.924 8.165 4.871 9.422z"/><path d="m287.588 80.2255c-1.257-3.946-5.473-6.13-9.422-4.871l-37.473 11.931c-4.236 1.349-6.492 6.151-4.48 10.374.311.468.611.943.895 1.428 1.906 2.3975 5.107 3.4555 8.136 2.4905l37.473-11.9315c3.947-1.256 6.127-5.474 4.871-9.421z"/><path d="m234.161 179.406c-4.431-3.073-9.979-3.467-14.679-1.424l14.322-20.653c4.767-6.874 3.059-16.311-3.815-21.077-4.432-3.074-9.98-3.467-14.68-1.424l8.225-11.86c4.767-6.874 3.059-16.311-3.815-21.078-6.864-4.7614-16.304-3.0684-21.077 3.815l-6.71 9.675c.264-5.065-2.004-10.146-6.479-13.249-6.867-4.7624-16.306-3.0654-21.077 3.815l-60.064 86.611-1.706-27.44c-.519-8.348-7.707-14.697-16.056-14.176-8.349.518-14.696 7.708-14.176 16.056 0 0 3.085 52.834 4.378 70.427 1.313 17.867 2.524 30.148 15.46 39.118l29.846 20.698c6.955 4.823 14.918 7.137 22.802 7.137 12.72 0 25.239-6.02 33.021-17.241 13.011-18.761 48.68-70.196 60.094-86.654 4.768-6.872 3.06-16.309-3.814-21.076z"/></g></svg>
